data/sheikah/0.svg

<!-- Generated by IcoMoon.io -->
<svg version="1.1" xmlns="http://www.w3.org/2000/svg" width="1024" height="1024" viewBox="0 0 1024 1024">
<title></title>
<g id="icomoon-ignore">
</g>
<path d="M452.5 452h119.5v119.5h-119.5v-119.5zM153.5 273l119.5-119.5h299v119.5h-299v597.5l-119.5-119.5v-478zM751 153.5l119.5 119.5v478l-119.5 119.5h-298.5v-119.5h298.5v-597.5z"></path>
</svg>

<svg xmlns="http://www.w3.org/2000/svg" width="1024" height="1024" viewBox="0 0 1024 1024">
  <title/>
  <path d="M452.5 452H572v119.5H452.5zm-299-179L273 153.5h299V273H273v597.5L153.5 751zM751 153.5 870.5 273v478L751 870.5H452.5V751H751z"/>
</svg>
